X:1
T:Mai am un singur dor
T:Pe lângă plopii fără soţ
L:1/8
Q:1/4=180
M:3/4
K:C
V:1 treble+8 nm="Recorder" snm="Rec."
V:1
 E2 |: E4 E2 | G4 G2 | ^F4 F2 | B6 | ^F2 G2 A2 | (A2 G2) A2 | B6- | B2 z2 E2 | E4 E2 | G4 G2 | %11
w: Pe|lân- gă|plo- pii|fă- ră|soţ|A- de- sea|am * tre-|cut.|* Mă|cu- noş-|teau ve-|
w: 2|2 2|4 4|3# 3#|6|3# 4 5|5 4 5|6|6 2|2 2|4 4|
 ^F4 F2 | B6 | ^F2 G2 A2 | (A2 G2) ^F2 | E6- | E2 z2 E2 | c4 c2 | c4 d2 | (e2 d2) c2 | B6 | %21
w: ci- nii|toţi|tu nu m–ai|cu- * noş-|cut.|* La|gea- mu|tău ce|stră- * lu-|cea|
w: 3# 3#|6|3# 4 5|5 4 3#|2|2 2|7 7|7 8|\-2 8 7|6|
 A2 B2 c2 | (c2 B2) _B2 | B6- | B2 z2 ^F2 | A4 A2 | A2 G2 ^F2 | c4 c2 | B6 | ^F2 G2 A2 | %30
w: Pri- vii a-|tât * de|des.|* O|lu- me|toa- * tă–n-|ţe- le-|gea.|Tu nu m–ai|
w: 5 6 7|7 6 6b|6|6 3#|5 5|5 4 3#|7 7|6|3# 4 5|
 (A2 G2) ^F2 |1 E6- | E2 z2 E2 :|2 E6- | E4 |] %35
w: în- * ţe-|les.|* De|mor.||
w: 5 4 3#|2|2 2|2|2|

